bernoullicharts/sqrt_x__mean.svg

<?xml version="1.0" encoding="utf-8" standalone="no"?>
<!DOCTYPE svg PUBLIC "-//W3C//DTD SVG 1.1//EN"
  "http://www.w3.org/Graphics/SVG/1.1/DTD/svg11.dtd">
<!-- Created with matplotlib (https://matplotlib.org/) -->
<svg height="345.6pt" version="1.1" viewBox="0 0 460.8 345.6" width="460.8pt" xmlns="http://www.w3.org/2000/svg" xmlns:xlink="http://www.w3.org/1999/xlink">
 <defs>
  <style type="text/css">
*{stroke-linecap:butt;stroke-linejoin:round;}
  </style>
 </defs>
 <g id="figure_1">
  <g id="patch_1">
   <path d="M 0 345.6 
L 460.8 345.6 
L 460.8 0 
L 0 0 
z
" style="fill:#ffffff;"/>
  </g>
  <g id="axes_1">
   <g id="patch_2">
    <path d="M 57.6 307.584 
L 414.72 307.584 
L 414.72 41.472 
L 57.6 41.472 
z
" style="fill:#ffffff;"/>
   </g>
   <g id="matplotlib.axis_1">
    <g id="xtick_1">
     <g id="line2d_1">
      <defs>
       <path d="M 0 0 
L 0 3.5 
" id="m32a6493d68" style="stroke:#000000;stroke-width:0.8;"/>
      </defs>
      <g>
       <use style="stroke:#000000;stroke-width:0.8;" x="73.800255" xlink:href="#m32a6493d68" y="307.584"/>
      </g>
     </g>
     <g id="text_1">
      <text style="font-family:DejaVu Sans;font-size:10px;font-style:normal;font-weight:normal;text-anchor:middle;" transform="rotate(-0, 73.800255, 322.182437)" x="73.800255" y="322.182437">0.0</text>
     </g>
    </g>
    <g id="xtick_2">
     <g id="line2d_2">
      <g>
       <use style="stroke:#000000;stroke-width:0.8;" x="138.744153" xlink:href="#m32a6493d68" y="307.584"/>
      </g>
     </g>
     <g id="text_2">
      <text style="font-family:DejaVu Sans;font-size:10px;font-style:normal;font-weight:normal;text-anchor:middle;" transform="rotate(-0, 138.744153, 322.182437)" x="138.744153" y="322.182437">0.2</text>
     </g>
    </g>
    <g id="xtick_3">
     <g id="line2d_3">
      <g>
       <use style="stroke:#000000;stroke-width:0.8;" x="203.688051" xlink:href="#m32a6493d68" y="307.584"/>
      </g>
     </g>
     <g id="text_3">
      <text style="font-family:DejaVu Sans;font-size:10px;font-style:normal;font-weight:normal;text-anchor:middle;" transform="rotate(-0, 203.688051, 322.182437)" x="203.688051" y="322.182437">0.4</text>
     </g>
    </g>
    <g id="xtick_4">
     <g id="line2d_4">
      <g>
       <use style="stroke:#000000;stroke-width:0.8;" x="268.631949" xlink:href="#m32a6493d68" y="307.584"/>
      </g>
     </g>
     <g id="text_4">
      <text style="font-family:DejaVu Sans;font-size:10px;font-style:normal;font-weight:normal;text-anchor:middle;" transform="rotate(-0, 268.631949, 322.182437)" x="268.631949" y="322.182437">0.6</text>
     </g>
    </g>
    <g id="xtick_5">
     <g id="line2d_5">
      <g>
       <use style="stroke:#000000;stroke-width:0.8;" x="333.575847" xlink:href="#m32a6493d68" y="307.584"/>
      </g>
     </g>
     <g id="text_5">
      <text style="font-family:DejaVu Sans;font-size:10px;font-style:normal;font-weight:normal;text-anchor:middle;" transform="rotate(-0, 333.575847, 322.182437)" x="333.575847" y="322.182437">0.8</text>
     </g>
    </g>
    <g id="xtick_6">
     <g id="line2d_6">
      <g>
       <use style="stroke:#000000;stroke-width:0.8;" x="398.519745" xlink:href="#m32a6493d68" y="307.584"/>
      </g>
     </g>
     <g id="text_6">
      <text style="font-family:DejaVu Sans;font-size:10px;font-style:normal;font-weight:normal;text-anchor:middle;" transform="rotate(-0, 398.519745, 322.182437)" x="398.519745" y="322.182437">1.0</text>
     </g>
    </g>
    <g id="text_7">
     <text style="font-family:DejaVu Sans;font-size:10px;font-style:normal;font-weight:normal;text-anchor:middle;" transform="rotate(-0, 236.16, 335.860562)" x="236.16" y="335.860562">Input Coin's Heads Probability (λ)</text>
    </g>
   </g>
   <g id="matplotlib.axis_2">
    <g id="ytick_1">
     <g id="line2d_7">
      <defs>
       <path d="M 0 0 
L -3.5 0 
" id="m71b93e9bd6" style="stroke:#000000;stroke-width:0.8;"/>
      </defs>
      <g>
       <use style="stroke:#000000;stroke-width:0.8;" x="57.6" xlink:href="#m71b93e9bd6" y="297.438968"/>
      </g>
     </g>
     <g id="text_8">
      <text style="font-family:DejaVu Sans;font-size:10px;font-style:normal;font-weight:normal;text-anchor:end;" transform="rotate(-0, 50.6, 301.238186)" x="50.6" y="301.238186">0.0</text>
     </g>
    </g>
    <g id="ytick_2">
     <g id="line2d_8">
      <g>
       <use style="stroke:#000000;stroke-width:0.8;" x="57.6" xlink:href="#m71b93e9bd6" y="248.664774"/>
      </g>
     </g>
     <g id="text_9">
      <text style="font-family:DejaVu Sans;font-size:10px;font-style:normal;font-weight:normal;text-anchor:end;" transform="rotate(-0, 50.6, 252.463993)" x="50.6" y="252.463993">0.2</text>
     </g>
    </g>
    <g id="ytick_3">
     <g id="line2d_9">
      <g>
       <use style="stroke:#000000;stroke-width:0.8;" x="57.6" xlink:href="#m71b93e9bd6" y="199.890581"/>
      </g>
     </g>
     <g id="text_10">
      <text style="font-family:DejaVu Sans;font-size:10px;font-style:normal;font-weight:normal;text-anchor:end;" transform="rotate(-0, 50.6, 203.689799)" x="50.6" y="203.689799">0.4</text>
     </g>
    </g>
    <g id="ytick_4">
     <g id="line2d_10">
      <g>
       <use style="stroke:#000000;stroke-width:0.8;" x="57.6" xlink:href="#m71b93e9bd6" y="151.116387"/>
      </g>
     </g>
     <g id="text_11">
      <text style="font-family:DejaVu Sans;font-size:10px;font-style:normal;font-weight:normal;text-anchor:end;" transform="rotate(-0, 50.6, 154.915606)" x="50.6" y="154.915606">0.6</text>
     </g>
    </g>
    <g id="ytick_5">
     <g id="line2d_11">
      <g>
       <use style="stroke:#000000;stroke-width:0.8;" x="57.6" xlink:href="#m71b93e9bd6" y="102.342194"/>
      </g>
     </g>
     <g id="text_12">
      <text style="font-family:DejaVu Sans;font-size:10px;font-style:normal;font-weight:normal;text-anchor:end;" transform="rotate(-0, 50.6, 106.141412)" x="50.6" y="106.141412">0.8</text>
     </g>
    </g>
    <g id="ytick_6">
     <g id="line2d_12">
      <g>
       <use style="stroke:#000000;stroke-width:0.8;" x="57.6" xlink:href="#m71b93e9bd6" y="53.568"/>
      </g>
     </g>
     <g id="text_13">
      <text style="font-family:DejaVu Sans;font-size:10px;font-style:normal;font-weight:normal;text-anchor:end;" transform="rotate(-0, 50.6, 57.367219)" x="50.6" y="57.367219">1.0</text>
     </g>
    </g>
    <g id="text_14">
     <text style="font-family:DejaVu Sans;font-size:10px;font-style:normal;font-weight:normal;text-anchor:middle;" transform="rotate(-90, 28.617187, 174.528)" x="28.617187" y="174.528">Simulated Mean / Function Value</text>
    </g>
   </g>
   <g id="line2d_13">
    <path clip-path="url(#p75072d045a)" d="M 73.832727 295.000258 
L 77.112066 272.810427 
L 80.391405 262.694432 
L 83.670744 254.920731 
L 86.950083 248.36333 
L 90.229421 242.584288 
L 93.50876 237.358575 
L 96.788099 232.552364 
L 100.067438 228.078395 
L 103.346777 223.876023 
L 106.626116 219.901077 
L 109.905455 216.120199 
L 113.184793 212.507466 
L 116.464132 209.042262 
L 119.743471 205.707864 
L 123.02281 202.490492 
L 126.302149 199.378625 
L 129.581488 196.362519 
L 132.860826 193.433842 
L 136.140165 190.585404 
L 139.419504 187.810953 
L 142.698843 185.105004 
L 145.978182 182.462722 
L 149.257521 179.879813 
L 152.53686 177.352446 
L 155.816198 174.877186 
L 159.095537 172.450936 
L 162.374876 170.070896 
L 165.654215 167.734521 
L 168.933554 165.439494 
L 172.212893 163.183693 
L 175.492231 160.965173 
L 178.77157 158.782146 
L 182.050909 156.632959 
L 185.330248 154.516087 
L 188.609587 152.430115 
L 191.888926 150.373726 
L 195.168264 148.345698 
L 198.447603 146.344889 
L 201.726942 144.37023 
L 205.006281 142.420723 
L 208.28562 140.495431 
L 211.564959 138.593472 
L 214.844298 136.714019 
L 218.123636 134.85629 
L 221.402975 133.019551 
L 224.682314 131.203104 
L 227.961653 129.406292 
L 231.240992 127.628491 
L 234.520331 125.869111 
L 237.799669 124.127591 
L 241.079008 122.403397 
L 244.358347 120.696022 
L 247.637686 119.004984 
L 250.917025 117.329823 
L 254.196364 115.670098 
L 257.475702 114.025392 
L 260.755041 112.395304 
L 264.03438 110.779451 
L 267.313719 109.177467 
L 270.593058 107.588999 
L 273.872397 106.013713 
L 277.151736 104.451284 
L 280.431074 102.901404 
L 283.710413 101.363775 
L 286.989752 99.83811 
L 290.269091 98.324134 
L 293.54843 96.821584 
L 296.827769 95.330204 
L 300.107107 93.849749 
L 303.386446 92.379982 
L 306.665785 90.920675 
L 309.945124 89.471607 
L 313.224463 88.032567 
L 316.503802 86.603348 
L 319.78314 85.183753 
L 323.062479 83.773589 
L 326.341818 82.372672 
L 329.621157 80.980821 
L 332.900496 79.597862 
L 336.179835 78.223629 
L 339.459174 76.857956 
L 342.738512 75.500687 
L 346.017851 74.151668 
L 349.29719 72.810751 
L 352.576529 71.477791 
L 355.855868 70.152648 
L 359.135207 68.835186 
L 362.414545 67.525274 
L 365.693884 66.222782 
L 368.973223 64.927587 
L 372.252562 63.639567 
L 375.531901 62.358604 
L 378.81124 61.084583 
L 382.090579 59.817393 
L 385.369917 58.556924 
L 388.649256 57.303072 
L 391.928595 56.055733 
L 395.207934 54.814806 
L 398.487273 53.580194 
" style="fill:none;stroke:#1f77b4;stroke-linecap:square;stroke-width:1.5;"/>
   </g>
   <g id="line2d_14">
    <path clip-path="url(#p75072d045a)" d="M 73.832727 295.488 
L 77.112066 271.100903 
L 80.391405 268.662194 
L 83.670744 257.444129 
L 86.950083 250.615742 
L 90.229421 250.615742 
L 93.50876 233.057032 
L 96.788099 233.057032 
L 100.067438 226.228645 
L 103.346777 225.253161 
L 106.626116 225.253161 
L 109.905455 219.888 
L 113.184793 215.986065 
L 116.464132 204.768 
L 119.743471 211.108645 
L 123.02281 195.500903 
L 126.302149 200.866065 
L 129.581488 203.304774 
L 132.860826 188.184774 
L 136.140165 195.988645 
L 139.419504 189.160258 
L 142.698843 191.111226 
L 145.978182 182.819613 
L 149.257521 187.697032 
L 152.53686 173.552516 
L 155.816198 179.893161 
L 159.095537 169.162839 
L 162.374876 168.187355 
L 165.654215 172.08929 
L 168.933554 163.309935 
L 172.212893 173.064774 
L 175.492231 159.895742 
L 178.77157 157.944774 
L 182.050909 149.165419 
L 185.330248 147.702194 
L 188.609587 160.383484 
L 191.888926 156.96929 
L 195.168264 145.751226 
L 198.447603 147.214452 
L 201.726942 142.337032 
L 205.006281 146.238968 
L 208.28562 145.263484 
L 211.564959 132.582194 
L 214.844298 130.631226 
L 218.123636 140.873806 
L 221.402975 135.508645 
L 224.682314 137.947355 
L 227.961653 124.778323 
L 231.240992 126.72929 
L 234.520331 127.217032 
L 237.799669 118.437677 
L 241.079008 123.802839 
L 244.358347 115.998968 
L 247.637686 109.170581 
L 250.917025 108.682839 
L 254.196364 113.072516 
L 257.475702 104.293161 
L 260.755041 115.511226 
L 264.03438 111.121548 
L 267.313719 110.146065 
L 270.593058 113.560258 
L 273.872397 111.121548 
L 277.151736 95.513806 
L 280.431074 111.121548 
L 283.710413 98.928 
L 286.989752 101.854452 
L 290.269091 99.903484 
L 293.54843 101.854452 
L 296.827769 95.026065 
L 300.107107 101.36671 
L 303.386446 94.050581 
L 306.665785 97.952516 
L 309.945124 98.440258 
L 313.224463 87.222194 
L 316.503802 81.857032 
L 319.78314 87.709935 
L 323.062479 82.832516 
L 326.341818 81.857032 
L 329.621157 77.955097 
L 332.900496 90.148645 
L 336.179835 73.077677 
L 339.459174 79.906065 
L 342.738512 71.12671 
L 346.017851 71.614452 
L 349.29719 73.565419 
L 352.576529 75.028645 
L 355.855868 68.688 
L 359.135207 68.688 
L 362.414545 64.786065 
L 365.693884 67.224774 
L 368.973223 64.298323 
L 372.252562 64.786065 
L 375.531901 56.982194 
L 378.81124 64.786065 
L 382.090579 61.371871 
L 385.369917 56.982194 
L 388.649256 56.494452 
L 391.928595 55.031226 
L 395.207934 54.543484 
L 398.487273 53.568 
" style="fill:none;stroke:#ff7f0e;stroke-linecap:square;stroke-width:1.5;"/>
   </g>
   <g id="patch_3">
    <path d="M 57.6 307.584 
L 57.6 41.472 
" style="fill:none;stroke:#000000;stroke-linecap:square;stroke-linejoin:miter;stroke-width:0.8;"/>
   </g>
   <g id="patch_4">
    <path d="M 414.72 307.584 
L 414.72 41.472 
" style="fill:none;stroke:#000000;stroke-linecap:square;stroke-linejoin:miter;stroke-width:0.8;"/>
   </g>
   <g id="patch_5">
    <path d="M 57.6 307.584 
L 414.72 307.584 
" style="fill:none;stroke:#000000;stroke-linecap:square;stroke-linejoin:miter;stroke-width:0.8;"/>
   </g>
   <g id="patch_6">
    <path d="M 57.6 41.472 
L 414.72 41.472 
" style="fill:none;stroke:#000000;stroke-linecap:square;stroke-linejoin:miter;stroke-width:0.8;"/>
   </g>
   <g id="text_15">
    <text style="font-family:DejaVu Sans;font-size:12px;font-style:normal;font-weight:normal;" transform="translate(124.244062 22.034625)">Simulated Mean for sqrt(x) Algorithm</text>
    <text style="font-family:DejaVu Sans;font-size:12px;font-style:normal;font-weight:normal;" transform="translate(132.609375 35.472)">(Wasserstein Distances in Legend)</text>
   </g>
   <g id="legend_1">
    <g id="patch_7">
     <path d="M 64.6 78.82825 
L 242.85 78.82825 
Q 244.85 78.82825 244.85 76.82825 
L 244.85 48.472 
Q 244.85 46.472 242.85 46.472 
L 64.6 46.472 
Q 62.6 46.472 62.6 48.472 
L 62.6 76.82825 
Q 62.6 78.82825 64.6 78.82825 
z
" style="fill:#ffffff;opacity:0.8;stroke:#cccccc;stroke-linejoin:miter;"/>
    </g>
    <g id="line2d_15">
     <path d="M 66.6 54.570437 
L 86.6 54.570437 
" style="fill:none;stroke:#1f77b4;stroke-linecap:square;stroke-width:1.5;"/>
    </g>
    <g id="line2d_16"/>
    <g id="text_16">
     <text style="font-family:DejaVu Sans;font-size:10px;font-style:normal;font-weight:normal;text-anchor:start;" transform="rotate(-0, 94.6, 58.070437)" x="94.6" y="58.070437">sqrt(x)</text>
    </g>
    <g id="line2d_17">
     <path d="M 66.6 69.248562 
L 86.6 69.248562 
" style="fill:none;stroke:#ff7f0e;stroke-linecap:square;stroke-width:1.5;"/>
    </g>
    <g id="line2d_18"/>
    <g id="text_17">
     <text style="font-family:DejaVu Sans;font-size:10px;font-style:normal;font-weight:normal;text-anchor:start;" transform="rotate(-0, 94.6, 72.748562)" x="94.6" y="72.748562">Simul. Mean (WD=0.007537)</text>
    </g>
   </g>
  </g>
 </g>
 <defs>
  <clipPath id="p75072d045a">
   <rect height="266.112" width="357.12" x="57.6" y="41.472"/>
  </clipPath>
 </defs>
</svg>

<svg height="460.8" viewBox="0 0 460.8 345.6" width="614.4" xmlns="http://www.w3.org/2000/svg" xmlns:xlink="http://www.w3.org/1999/xlink"><defs><style>*{stroke-linecap:butt;stroke-linejoin:round}</style></defs><g id="figure_1"><path d="M0 345.6h460.8V0H0z" fill="#fff" id="patch_1"/><g id="axes_1"><path d="M57.6 307.584h357.12V41.472H57.6z" fill="#fff" id="patch_2"/><g id="matplotlib.axis_1"><g id="xtick_1"><g id="line2d_1"><defs><path d="M0 0v3.5" id="m32a6493d68" stroke="#000" stroke-width=".8"/></defs><use x="73.8" xlink:href="#m32a6493d68" y="307.584" stroke="#000" stroke-width=".8"/></g><text x="73.8" y="322.182" font-family="DejaVu Sans" font-size="10" font-weight="400" text-anchor="middle" id="text_1">0.0</text></g><g id="xtick_2"><use x="138.744" xlink:href="#m32a6493d68" y="307.584" stroke="#000" stroke-width=".8" id="line2d_2"/><text x="138.744" y="322.182" font-family="DejaVu Sans" font-size="10" font-weight="400" text-anchor="middle" id="text_2">0.2</text></g><g id="xtick_3"><use x="203.688" xlink:href="#m32a6493d68" y="307.584" stroke="#000" stroke-width=".8" id="line2d_3"/><text x="203.688" y="322.182" font-family="DejaVu Sans" font-size="10" font-weight="400" text-anchor="middle" id="text_3">0.4</text></g><g id="xtick_4"><use x="268.632" xlink:href="#m32a6493d68" y="307.584" stroke="#000" stroke-width=".8" id="line2d_4"/><text x="268.632" y="322.182" font-family="DejaVu Sans" font-size="10" font-weight="400" text-anchor="middle" id="text_4">0.6</text></g><g id="xtick_5"><use x="333.576" xlink:href="#m32a6493d68" y="307.584" stroke="#000" stroke-width=".8" id="line2d_5"/><text x="333.576" y="322.182" font-family="DejaVu Sans" font-size="10" font-weight="400" text-anchor="middle" id="text_5">0.8</text></g><g id="xtick_6"><use x="398.52" xlink:href="#m32a6493d68" y="307.584" stroke="#000" stroke-width=".8" id="line2d_6"/><text x="398.52" y="322.182" font-family="DejaVu Sans" font-size="10" font-weight="400" text-anchor="middle" id="text_6">1.0</text></g><text x="236.16" y="335.861" font-family="DejaVu Sans" font-size="10" font-weight="400" text-anchor="middle" id="text_7">Input Coin&apos;s Heads Probability (λ)</text></g><g id="matplotlib.axis_2"><g id="ytick_1"><g id="line2d_7"><defs><path d="M0 0h-3.5" id="m71b93e9bd6" stroke="#000" stroke-width=".8"/></defs><use x="57.6" xlink:href="#m71b93e9bd6" y="297.439" stroke="#000" stroke-width=".8"/></g><text x="50.6" y="301.238" font-family="DejaVu Sans" font-size="10" font-weight="400" text-anchor="end" id="text_8">0.0</text></g><g id="ytick_2"><use x="57.6" xlink:href="#m71b93e9bd6" y="248.665" stroke="#000" stroke-width=".8" id="line2d_8"/><text x="50.6" y="252.464" font-family="DejaVu Sans" font-size="10" font-weight="400" text-anchor="end" id="text_9">0.2</text></g><g id="ytick_3"><use x="57.6" xlink:href="#m71b93e9bd6" y="199.891" stroke="#000" stroke-width=".8" id="line2d_9"/><text x="50.6" y="203.69" font-family="DejaVu Sans" font-size="10" font-weight="400" text-anchor="end" id="text_10">0.4</text></g><g id="ytick_4"><use x="57.6" xlink:href="#m71b93e9bd6" y="151.116" stroke="#000" stroke-width=".8" id="line2d_10"/><text x="50.6" y="154.916" font-family="DejaVu Sans" font-size="10" font-weight="400" text-anchor="end" id="text_11">0.6</text></g><g id="ytick_5"><use x="57.6" xlink:href="#m71b93e9bd6" y="102.342" stroke="#000" stroke-width=".8" id="line2d_11"/><text x="50.6" y="106.141" font-family="DejaVu Sans" font-size="10" font-weight="400" text-anchor="end" id="text_12">0.8</text></g><g id="ytick_6"><use x="57.6" xlink:href="#m71b93e9bd6" y="53.568" stroke="#000" stroke-width=".8" id="line2d_12"/><text x="50.6" y="57.367" font-family="DejaVu Sans" font-size="10" font-weight="400" text-anchor="end" id="text_13">1.0</text></g><text transform="rotate(-90 28.617 174.528)" x="28.617" y="174.528" font-family="DejaVu Sans" font-size="10" font-weight="400" text-anchor="middle" id="text_14">Simulated Mean / Function Value</text></g><path clip-path="url(#p75072d045a)" d="M73.833 295l3.28-22.19 3.278-10.116 3.28-7.773 3.28-6.558 3.278-5.779 3.28-5.225 3.28-4.807 3.278-4.474 3.28-4.202 3.28-3.975 3.278-3.78 3.28-3.614 3.28-3.465 3.278-3.334 3.28-3.218 3.28-3.111 3.278-3.016 3.28-2.93 3.28-2.848 3.279-2.774 3.279-2.706 3.28-2.642 3.279-2.583 3.279-2.528 3.28-2.475 3.279-2.426 3.279-2.38 3.28-2.336 3.279-2.296 3.279-2.255 3.28-2.219 3.279-2.183 3.279-2.149 3.28-2.117 3.279-2.086 3.279-2.056 3.28-2.028 3.279-2.001 3.279-1.975 3.28-1.95 3.279-1.925 3.279-1.902 3.28-1.879 3.279-1.858 3.279-1.836 3.28-1.817 3.279-1.797 3.279-1.778 3.28-1.759 3.279-1.741 3.279-1.725 3.28-1.707 3.279-1.691 3.279-1.675 3.28-1.66 3.279-1.645 3.279-1.63 3.28-1.616 3.279-1.602 3.28-1.588 3.278-1.575 3.28-1.563 3.28-1.55 3.278-1.537 3.28-1.526 3.28-1.514 3.278-1.502 3.28-1.492 3.28-1.48 3.278-1.47 3.28-1.46 3.28-1.448 3.278-1.44 3.28-1.429 3.28-1.42 3.278-1.41 3.28-1.4 3.28-1.392 3.278-1.383 3.28-1.374 3.28-1.366 3.279-1.357 3.279-1.35 3.28-1.34 3.279-1.333 3.279-1.325 3.28-1.318 3.279-1.31 3.279-1.302 3.28-1.295 3.279-1.288 3.279-1.281 3.28-1.274 3.279-1.268 3.279-1.26 3.28-1.254 3.279-1.247 3.279-1.241 3.28-1.235" fill="none" stroke="#1f77b4" stroke-linecap="square" stroke-width="1.5" id="line2d_13"/><path clip-path="url(#p75072d045a)" d="M73.833 295.488l3.28-24.387 3.278-2.439 3.28-11.218 3.28-6.828h3.278l3.28-17.559h3.28l3.278-6.828 3.28-.976h3.28l3.278-5.365 3.28-3.902 3.28-11.218 3.278 6.34 3.28-15.607 3.28 5.365 3.278 2.439 3.28-15.12 3.28 7.804 3.279-6.829 3.279 1.951 3.28-8.291 3.279 4.877 3.279-14.144 3.28 6.34 3.279-10.73 3.279-.976 3.28 3.902 3.279-8.78 3.279 9.756 3.28-13.17 3.279-1.95 3.279-8.78 3.28-1.463 3.279 12.681 3.279-3.414 3.28-11.218 3.279 1.463 3.279-4.877 3.28 3.902 3.279-.976 3.279-12.68 3.28-1.952 3.279 10.243 3.279-5.365 3.28 2.438 3.279-13.169 3.279 1.951 3.28.488 3.279-8.78 3.279 5.366 3.28-7.804 3.279-6.828 3.279-.488 3.28 4.39 3.279-8.78 3.279 11.218 3.28-4.39 3.279-.975 3.28 3.414 3.278-2.438 3.28-15.608 3.28 15.608 3.278-12.194 3.28 2.926 3.28-1.95 3.278 1.95 3.28-6.828 3.28 6.34 3.278-7.315 3.28 3.902 3.28.487 3.278-11.218 3.28-5.365 3.28 5.853 3.278-4.877 3.28-.976 3.28-3.902L332.9 90.15l3.28-17.071 3.28 6.828 3.279-8.78 3.279.488 3.28 1.951 3.279 1.464 3.279-6.341h3.28l3.279-3.902 3.279 2.439 3.28-2.927 3.279.488 3.279-7.804 3.28 7.804 3.279-3.414 3.279-4.39 3.28-.488 3.279-1.463 3.279-.488 3.28-.975" fill="none" stroke="#ff7f0e" stroke-linecap="square" stroke-width="1.5" id="line2d_14"/><path d="M57.6 307.584V41.472" fill="none" stroke="#000" stroke-linecap="square" stroke-width=".8" id="patch_3"/><path d="M414.72 307.584V41.472" fill="none" stroke="#000" stroke-linecap="square" stroke-width=".8" id="patch_4"/><path d="M57.6 307.584h357.12" fill="none" stroke="#000" stroke-linecap="square" stroke-width=".8" id="patch_5"/><path d="M57.6 41.472h357.12" fill="none" stroke="#000" stroke-linecap="square" stroke-width=".8" id="patch_6"/><g id="text_15" font-family="DejaVu Sans" font-size="12" font-weight="400"><text transform="translate(124.244 22.035)">Simulated Mean for sqrt(x) Algorithm</text><text transform="translate(132.61 35.472)">(Wasserstein Distances in Legend)</text></g><g id="legend_1"><path d="M64.6 78.828h178.25q2 0 2-2V48.472q0-2-2-2H64.6q-2 0-2 2v28.356q0 2 2 2z" fill="#fff" opacity=".8" stroke="#ccc" id="patch_7"/><path d="M66.6 54.57h20" fill="none" stroke="#1f77b4" stroke-linecap="square" stroke-width="1.5" id="line2d_15"/><text x="94.6" y="58.07" font-family="DejaVu Sans" font-size="10" font-weight="400" id="text_16">sqrt(x)</text><path d="M66.6 69.249h20" fill="none" stroke="#ff7f0e" stroke-linecap="square" stroke-width="1.5" id="line2d_17"/><text x="94.6" y="72.749" font-family="DejaVu Sans" font-size="10" font-weight="400" id="text_17">Simul. Mean (WD=0.007537)</text></g></g></g><defs><clipPath id="p75072d045a"><path d="M57.6 41.472h357.12v266.112H57.6z"/></clipPath></defs></svg>
